<?xml version="1.0" encoding="UTF-8"?>
<map version="1.10" tiledversion="1.12.1" orientation="orthogonal" renderorder="right-down" width="20" height="15" tilewidth="32" tileheight="32" infinite="0" nextlayerid="5" nextobjectid="1">
 <tileset firstgid="1" source="tileset.tsx"/>
 <layer id="1" name="suelo" width="20" height="15">
  <data encoding="csv">
16,16,16,16,16,16,16,16,16,16,16,16,16,16,16,16,16,16,16,16,
16,16,16,16,16,16,16,16,16,16,16,16,16,16,16,16,16,16,16,16,
16,16,16,16,16,16,16,16,16,16,16,16,16,16,16,16,16,16,16,16,
16,16,16,16,16,16,16,16,16,16,16,16,16,16,16,16,16,16,16,16,
16,16,16,16,16,16,16,16,16,16,16,16,16,16,16,16,16,16,16,16,
16,16,16,16,16,16,16,16,16,16,16,16,16,16,16,16,16,16,16,16,
16,16,16,16,16,16,16,16,16,16,16,16,16,16,16,16,16,16,16,16,
16,16,16,16,16,16,16,16,16,16,16,16,16,16,16,16,16,16,16,16,
16,16,16,16,16,16,16,16,16,16,16,16,16,16,16,16,16,16,16,16,
16,16,16,16,16,16,16,16,16,16,16,16,16,16,16,16,16,16,16,16,
16,16,16,16,16,16,16,16,16,16,16,16,16,16,16,16,16,16,16,16,
16,16,16,16,16,16,16,16,16,16,16,16,16,16,16,16,16,16,16,16,
16,16,16,16,16,16,16,16,16,16,16,16,16,16,16,16,16,16,16,16,
16,16,16,16,16,16,16,16,16,16,16,16,16,16,16,16,16,16,16,16,
16,16,16,16,16,16,16,16,16,16,16,16,16,16,16,16,16,16,16,16
</data>
 </layer>
 <layer id="3" name="pared" width="20" height="15">
  <data encoding="csv">
2,3,3,3,3,3,3,3,3,3,3,3,3,3,3,3,3,3,3,4,
15,0,0,0,0,0,0,0,0,0,0,0,0,0,0,0,0,0,0,17,
15,0,0,0,0,0,0,0,0,0,0,0,0,0,0,0,0,0,0,43,
15,0,0,0,0,0,0,0,0,0,0,0,0,0,0,0,0,0,0,17,
15,0,0,0,0,0,0,0,0,0,0,0,0,0,0,0,0,0,0,17,
15,0,0,0,0,0,0,0,0,0,0,0,0,0,0,0,0,0,0,17,
15,0,0,0,0,0,0,0,0,0,0,0,0,0,0,0,0,0,0,17,
15,0,0,0,0,0,0,0,0,0,0,0,0,0,0,0,0,0,0,17,
15,0,0,0,0,0,0,0,0,0,0,0,0,0,0,0,0,0,0,17,
15,0,0,0,0,0,0,0,0,0,0,0,0,0,0,0,0,0,0,17,
15,0,0,0,0,0,0,0,0,0,0,0,0,0,0,0,0,0,0,17,
40,0,0,0,0,0,0,0,0,0,0,0,0,0,0,0,0,0,0,17,
15,0,0,0,0,0,0,0,0,0,0,0,0,0,0,0,0,0,0,17,
15,0,0,0,0,0,0,0,0,0,0,0,0,0,0,0,0,0,0,17,
28,29,29,29,29,29,29,29,29,29,29,29,29,29,29,29,29,29,29,30
</data>
 </layer>
 <layer id="4" name="obstaculos" width="20" height="15">
  <data encoding="csv">
0,0,0,0,0,0,0,0,0,42,0,0,0,0,0,0,0,0,0,0,
0,51,0,0,0,0,0,0,0,0,22,10,2684354570,2684354570,10,0,0,0,39,0,
0,0,0,0,10,10,0,0,0,0,0,10,2684354570,2684354570,10,10,0,0,0,69,
0,0,0,0,10,2684354570,2684354570,10,0,0,0,0,2684354570,2684354570,7,0,0,0,0,0,
0,0,0,0,10,2684354570,2684354570,10,0,0,0,0,2684354570,2684354570,0,0,0,0,0,0,
0,0,0,0,8,2684354570,2684354570,10,10,0,0,0,2684354570,2684354570,25,0,0,0,0,0,
0,0,0,0,0,2684354570,2684354570,0,0,0,0,0,2684354570,2684354570,25,0,0,0,0,0,
0,0,0,0,10,2684354570,2684354570,0,0,0,0,10,2684354570,2684354570,0,0,0,0,0,0,
0,0,0,0,10,2684354570,2684354570,0,0,21,10,10,2684354570,2684354570,0,0,0,0,0,0,
0,0,0,0,8,2684354570,2684354570,0,0,0,8,10,2684354570,2684354570,10,0,0,0,0,0,
0,0,0,0,0,2684354570,2684354570,25,0,0,0,0,2684354570,2684354570,10,0,0,0,0,0,
0,0,0,0,0,2684354570,2684354570,0,0,0,0,0,0,10,10,25,0,0,0,0,
0,0,0,10,10,2684354570,2684354570,0,0,0,0,0,0,0,0,0,0,0,0,0,
0,39,21,10,10,2684354570,2684354570,0,0,0,0,0,0,0,0,0,0,0,51,0,
0,0,0,0,0,0,0,0,0,0,0,0,0,0,0,0,0,0,0,0
</data>
 </layer>
</map>
