<?xml version="1.0" encoding="UTF-8"?>
<map version="1.10" tiledversion="1.12.1" orientation="orthogonal" renderorder="right-down" width="15" height="9" tilewidth="32" tileheight="32" infinite="0" nextlayerid="4" nextobjectid="1">
 <tileset firstgid="1" source="tileset.tsx"/>
 <layer id="1" name="suelo" width="15" height="9">
  <data encoding="csv">
16,16,16,16,16,16,16,16,16,16,16,16,16,16,16,
16,16,16,16,16,16,16,16,16,16,16,16,16,16,16,
16,16,16,16,16,16,16,16,16,16,16,16,16,16,16,
16,16,16,16,16,16,16,16,16,16,16,16,16,16,16,
16,16,16,16,16,16,16,16,16,16,16,16,16,16,16,
16,16,16,16,16,16,16,16,16,16,16,16,16,16,16,
16,16,16,16,16,16,16,16,16,16,16,16,16,16,16,
16,16,16,16,16,16,16,16,16,16,16,16,16,16,16,
16,16,16,16,16,16,16,16,16,16,16,16,16,16,16
</data>
 </layer>
 <layer id="2" name="pared" width="15" height="9">
  <data encoding="csv">
2,3,14,3,3,3,3,3,3,3,3,3,3,3,4,
15,0,0,0,0,0,0,0,0,0,0,0,0,0,17,
15,0,0,0,0,0,0,0,0,0,0,0,0,0,17,
15,0,0,0,0,0,0,0,0,0,0,0,0,0,17,
15,0,0,0,0,0,0,0,0,0,0,0,0,0,27,
15,0,0,0,0,0,0,0,0,0,0,0,0,0,17,
15,0,0,0,0,0,0,0,0,0,0,0,0,0,17,
15,0,0,0,0,0,0,0,0,0,0,0,0,0,17,
28,29,29,29,29,29,29,29,29,29,29,29,29,29,30
</data>
 </layer>
 <layer id="3" name="obstaculos" width="15" height="9">
  <data encoding="csv">
0,0,53,0,0,0,0,0,0,0,36,0,0,0,0,
0,45,0,32,0,0,50,51,0,0,49,0,0,0,0,
0,0,0,0,0,0,0,0,0,0,0,8,10,0,0,
0,0,8,10,24,0,0,0,0,0,0,0,0,0,0,
0,0,0,10,10,0,0,0,0,10,0,20,0,0,0,
0,0,8,0,8,0,0,0,0,8,10,10,0,0,0,
0,10,0,0,0,0,0,0,0,24,10,0,0,0,0,
0,0,7,34,0,0,0,0,0,0,0,0,0,0,0,
0,0,0,0,0,0,0,0,0,0,0,0,0,0,0
</data>
 </layer>
</map>
