<?xml version="1.0" encoding="UTF-8"?>
<map version="1.10" tiledversion="1.12.1" orientation="orthogonal" renderorder="right-down" width="20" height="10" tilewidth="32" tileheight="32" infinite="0" nextlayerid="4" nextobjectid="1">
 <tileset firstgid="1" source="tileset.tsx"/>
 <layer id="1" name="suelo" width="20" height="10">
  <data encoding="csv">
16,16,16,16,16,16,16,16,16,16,16,16,16,16,16,16,16,16,16,16,
16,16,16,16,16,16,16,16,16,16,16,16,16,16,16,16,16,16,16,16,
16,16,16,16,16,16,16,16,16,16,16,16,16,16,16,16,16,16,16,16,
16,16,16,16,16,16,16,16,16,16,16,16,16,16,16,16,16,16,16,16,
16,16,16,16,16,16,16,16,16,16,16,16,16,16,16,16,16,16,16,16,
16,16,16,16,16,16,16,16,16,16,16,16,16,16,16,16,16,16,16,16,
16,16,16,16,16,16,16,16,16,16,16,16,16,16,16,16,16,16,16,16,
16,16,16,16,16,16,16,16,16,16,16,16,16,16,16,16,16,16,16,16,
16,16,16,16,16,16,16,16,16,16,16,16,16,16,16,16,16,16,16,16,
16,16,16,16,16,16,16,16,16,16,16,16,16,16,16,16,16,16,16,16
</data>
 </layer>
 <layer id="2" name="pared" width="20" height="10">
  <data encoding="csv">
2,3,3,3,3,3,3,3,3,3,3,3,3,3,3,3,3,3,3,4,
15,0,0,0,0,0,0,0,0,0,0,0,0,0,0,0,0,0,0,17,
55,0,0,0,0,0,0,0,0,0,0,0,0,0,0,0,0,0,0,17,
15,0,0,0,0,0,0,0,0,0,0,0,0,0,0,0,0,0,0,17,
15,0,0,0,0,0,0,0,0,0,0,0,0,0,0,0,0,0,0,17,
15,0,0,0,0,0,0,0,0,0,0,0,0,0,0,0,0,0,0,17,
15,0,0,0,0,0,0,0,0,0,0,0,0,0,0,0,0,0,0,17,
15,0,0,0,0,0,0,0,0,0,0,0,0,0,0,0,0,0,0,17,
15,0,0,0,0,0,0,0,0,0,0,0,0,0,0,0,0,0,0,17,
28,29,29,29,29,29,29,29,29,29,29,29,29,29,29,29,29,29,29,30
</data>
 </layer>
 <layer id="3" name="obstaculos" width="20" height="10">
  <data encoding="csv">
0,0,0,0,0,0,0,0,0,0,0,0,0,0,0,0,0,0,0,0,
0,32,0,0,0,0,39,0,0,0,8,10,10,20,0,0,0,0,45,0,
0,0,0,0,25,0,0,0,0,0,0,12,10,10,0,0,0,0,0,0,
0,0,0,23,10,10,10,25,0,0,0,0,0,10,12,0,50,0,0,0,
0,0,0,11,10,10,10,10,0,0,39,0,8,10,10,0,0,0,0,0,
0,0,0,24,12,10,10,10,25,0,0,0,0,0,10,0,0,0,0,0,
0,0,0,0,0,0,23,0,0,0,0,0,0,10,10,20,0,0,0,0,
0,0,0,0,0,0,0,0,11,10,10,0,0,0,0,0,0,0,0,0,
0,0,0,51,0,0,0,0,24,10,10,10,0,0,0,0,0,0,31,0,
0,0,0,0,0,0,0,0,0,0,0,0,0,0,0,0,0,0,0,0
</data>
 </layer>
</map>
