<?xml version="1.0" encoding="UTF-8"?>
<map version="1.10" tiledversion="1.12.1" orientation="orthogonal" renderorder="right-down" width="16" height="9" tilewidth="32" tileheight="32" infinite="0" nextlayerid="6" nextobjectid="1">
 <tileset firstgid="1" source="tileset.tsx"/>
 <layer id="1" name="suelo" width="16" height="9">
  <data encoding="csv">
16,16,16,16,16,16,16,16,16,16,16,16,16,16,16,16,
16,16,16,16,16,16,16,16,16,16,16,16,16,16,16,16,
16,16,16,16,16,16,16,16,16,16,16,16,16,16,16,16,
16,16,16,16,16,16,16,16,16,16,16,16,16,16,16,16,
16,16,16,16,16,16,16,16,16,16,16,16,16,16,16,16,
16,16,16,16,16,16,16,16,16,16,16,16,16,16,16,16,
16,16,16,16,16,16,16,16,16,16,16,16,16,16,16,16,
16,16,16,16,16,16,16,16,16,16,16,16,16,16,16,16,
16,16,16,16,16,16,16,16,16,16,16,16,16,16,16,16
</data>
 </layer>
 <layer id="2" name="pared" width="16" height="9">
  <data encoding="csv">
2,3,3,3,3,3,3,3,3,3,3,3,3,3,3,4,
15,0,0,0,0,0,0,0,0,0,0,0,0,0,0,17,
15,0,0,0,0,0,0,0,0,0,0,0,0,0,0,17,
15,0,0,0,0,0,0,0,0,0,0,0,0,0,0,17,
15,0,0,0,0,0,0,0,0,0,0,0,0,0,0,17,
15,0,0,0,0,0,0,0,0,0,0,0,0,0,0,17,
15,0,0,0,0,0,0,0,0,0,0,0,0,0,0,17,
15,0,0,0,0,0,0,0,0,0,0,0,0,0,0,17,
28,29,29,29,29,29,29,29,29,29,29,29,29,29,29,30
</data>
 </layer>
 <layer id="3" name="obstaculos" width="16" height="9">
  <data encoding="csv">
0,0,0,0,0,0,0,0,0,0,0,0,0,0,0,0,
0,44,0,0,0,0,0,0,21,10,10,0,0,0,44,0,
0,0,0,10,10,25,0,0,0,8,7,36,37,38,0,0,
0,0,8,10,10,10,10,0,0,0,0,0,0,0,0,0,
0,0,0,8,10,10,7,0,0,10,20,0,0,0,0,0,
0,0,0,0,0,0,0,0,10,10,10,10,25,0,0,0,
0,0,49,37,0,0,0,0,45,10,10,10,0,21,7,0,
0,0,0,0,0,0,0,0,0,8,10,0,0,0,7,0,
0,0,0,0,0,0,0,0,0,0,0,0,0,0,0,0
</data>
 </layer>
 <layer id="4" name="puertas_abiertas" width="16" height="9">
  <data encoding="csv">
0,0,0,0,0,0,0,68,0,0,0,0,0,0,0,0,
0,0,0,0,0,0,0,0,0,0,0,0,0,0,0,0,
0,0,0,0,0,0,0,0,0,0,0,0,0,0,0,0,
0,0,0,0,0,0,0,0,0,0,0,0,0,0,0,0,
0,0,0,0,0,0,0,0,0,0,0,0,0,0,0,27,
0,0,0,0,0,0,0,0,0,0,0,0,0,0,0,0,
0,0,0,0,0,0,0,0,0,0,0,0,0,0,0,0,
0,0,0,0,0,0,0,0,0,0,0,0,0,0,0,0,
0,0,0,0,0,0,0,0,0,0,0,0,0,0,0,0
</data>
 </layer>
 <layer id="5" name="puertas_cerradas" width="16" height="9">
  <data encoding="csv">
0,0,0,0,0,0,0,53,0,0,0,0,0,0,0,0,
0,0,0,0,0,0,0,0,0,0,0,0,0,0,0,0,
0,0,0,0,0,0,0,0,0,0,0,0,0,0,0,0,
0,0,0,0,0,0,0,0,0,0,0,0,0,0,0,0,
0,0,0,0,0,0,0,0,0,0,0,0,0,0,0,54,
0,0,0,0,0,0,0,0,0,0,0,0,0,0,0,0,
0,0,0,0,0,0,0,0,0,0,0,0,0,0,0,0,
0,0,0,0,0,0,0,0,0,0,0,0,0,0,0,0,
0,0,0,0,0,0,0,0,0,0,0,0,0,0,0,0
</data>
 </layer>
</map>
