<?xml version="1.0" encoding="UTF-8"?>
<map version="1.10" tiledversion="1.12.1" orientation="orthogonal" renderorder="right-down" width="16" height="9" tilewidth="32" tileheight="32" infinite="0" nextlayerid="6" nextobjectid="1">
 <tileset firstgid="1" source="tileset.tsx"/>
 <layer id="1" name="suelo" width="16" height="9">
  <data encoding="csv">
16,16,16,16,16,16,16,16,16,16,16,16,16,16,16,16,
16,16,16,16,16,16,16,16,16,16,16,16,16,16,16,16,
16,16,16,16,16,16,16,16,16,16,16,16,16,16,16,16,
16,16,16,16,16,16,16,16,16,16,16,16,16,16,16,16,
16,16,16,16,16,16,16,16,16,16,16,16,16,16,16,16,
16,16,16,16,16,16,16,16,16,16,16,16,16,16,16,16,
16,16,16,16,16,16,16,16,16,16,16,16,16,16,16,16,
16,16,16,16,16,16,16,16,16,16,16,16,16,16,16,16,
16,16,16,16,16,16,16,16,16,16,16,16,16,16,16,16
</data>
 </layer>
 <layer id="2" name="pared" width="16" height="9">
  <data encoding="csv">
2,3,3,3,3,3,3,3,3,3,3,3,3,3,3,4,
15,0,0,0,0,0,0,0,0,0,0,0,0,0,0,17,
15,0,0,0,0,0,0,0,0,0,0,0,0,0,0,17,
15,0,0,0,0,0,0,0,0,0,0,0,0,0,0,17,
15,0,0,0,0,0,0,0,0,0,0,0,0,0,0,17,
15,0,0,0,0,0,0,0,0,0,0,0,0,0,0,17,
15,0,0,0,0,0,0,0,0,0,0,0,0,0,0,17,
15,0,0,0,0,0,0,0,0,0,0,0,0,0,0,17,
28,29,29,29,29,29,29,29,29,29,29,29,29,29,29,30
</data>
 </layer>
 <layer id="3" name="obstaculos" width="16" height="9">
  <data encoding="csv">
0,0,0,0,0,0,0,0,0,0,0,0,0,0,0,0,
0,35,0,0,50,0,44,10,10,10,10,0,45,44,32,0,
0,0,34,0,0,8,10,10,10,7,0,0,0,0,0,0,
0,0,0,0,0,0,0,0,0,0,0,0,0,0,0,0,
0,0,21,10,0,0,0,0,0,0,0,10,10,20,0,0,
0,10,10,10,0,0,0,0,0,0,0,8,10,10,10,0,
0,10,10,7,0,0,0,0,0,0,0,0,0,0,22,0,
0,44,0,0,0,0,39,0,39,0,0,45,33,0,38,0,
0,0,0,0,0,0,0,0,0,0,0,0,0,0,0,0
</data>
 </layer>
 <layer id="4" name="puertas_abiertas" width="16" height="9">
  <data encoding="csv">
0,0,0,0,0,0,0,0,0,0,0,0,0,0,0,0,
0,0,0,0,0,0,0,0,0,0,0,0,0,0,0,0,
0,0,0,0,0,0,0,0,0,0,0,0,0,0,0,0,
0,0,0,0,0,0,0,0,0,0,0,0,0,0,0,0,
40,0,0,0,0,0,0,0,0,0,0,0,0,0,0,69,
0,0,0,0,0,0,0,0,0,0,0,0,0,0,0,0,
0,0,0,0,0,0,0,0,0,0,0,0,0,0,0,0,
0,0,0,0,0,0,0,0,0,0,0,0,0,0,0,0,
0,0,0,0,0,0,0,81,0,0,0,0,0,0,0,0
</data>
 </layer>
 <layer id="5" name="puertas_cerradas" width="16" height="9">
  <data encoding="csv">
0,0,0,0,0,0,0,0,0,0,0,0,0,0,0,0,
0,0,0,0,0,0,0,0,0,0,0,0,0,0,0,0,
0,0,0,0,0,0,0,0,0,0,0,0,0,0,0,0,
0,0,0,0,0,0,0,0,0,0,0,0,0,0,0,0,
66,0,0,0,0,0,0,0,0,0,0,0,0,0,0,54,
0,0,0,0,0,0,0,0,0,0,0,0,0,0,0,0,
0,0,0,0,0,0,0,0,0,0,0,0,0,0,0,0,
0,0,0,0,0,0,0,0,0,0,0,0,0,0,0,0,
0,0,0,0,0,0,0,67,0,0,0,0,0,0,0,0
</data>
 </layer>
</map>
